fs/tab_prohibited_20_filled.svg

<svg viewBox="0 0 20 20" fill="none" xmlns="http://www.w3.org/2000/svg" height="1em" width="1em">
  <path d="M3 5.5C3 4.11929 4.11929 3 5.5 3H14.5C15.8807 3 17 4.11929 17 5.5V9.59971C16.5345 9.36173 16.0306 9.18814 15.5 9.09069V5.5C15.5 4.94772 15.0523 4.5 14.5 4.5H5.5C4.94772 4.5 4.5 4.94772 4.5 5.5V14.5C4.5 15.0523 4.94772 15.5 5.5 15.5H9.09069C9.18814 16.0306 9.36173 16.5345 9.59971 17H5.5C4.11929 17 3 15.8807 3 14.5V5.5ZM10 14.5C10 16.9853 12.0147 19 14.5 19C16.9853 19 19 16.9853 19 14.5C19 12.0147 16.9853 10 14.5 10C12.0147 10 10 12.0147 10 14.5ZM11 14.5C11 12.567 12.567 11 14.5 11C15.2862 11 16.0118 11.2592 16.5961 11.6968L11.6968 16.5961C11.2592 16.0118 11 15.2862 11 14.5ZM14.5 18C13.7138 18 12.9882 17.7408 12.4039 17.3032L17.3032 12.4039C17.7408 12.9882 18 13.7138 18 14.5C18 16.433 16.433 18 14.5 18Z" fill="#212121"/>
</svg>

<svg viewBox="0 0 20 20" fill="none" xmlns="http://www.w3.org/2000/svg" height="1em" width="1em">
  <path d="M3 5.5A2.5 2.5 0 0 1 5.5 3h9A2.5 2.5 0 0 1 17 5.5v4.1a5.46 5.46 0 0 0-1.5-.51V5.5a1 1 0 0 0-1-1h-9a1 1 0 0 0-1 1v9a1 1 0 0 0 1 1h3.59A5.46 5.46 0 0 0 9.6 17H5.5A2.5 2.5 0 0 1 3 14.5v-9Zm7 9a4.5 4.5 0 1 0 9 0 4.5 4.5 0 0 0-9 0Zm1 0a3.5 3.5 0 0 1 5.596-2.803l-4.9 4.9A3.484 3.484 0 0 1 11 14.5Zm3.5 3.5c-.786 0-1.512-.26-2.096-.697l4.9-4.9A3.5 3.5 0 0 1 14.5 18Z" fill="#212121"/>
</svg>
